X: 53
T: Praeludia organi op. 5 – Allegro moderato
C: Franciszek Walczyński
%%abc-version 2.0
%%abcx-abcm2ps-target-version 5.9.1 (29 Sep 2008)
%%abc-creator hum2abc beta
%%abcx-conversion-date 2021/10/04 07:38:39
%%abc-edited-by Andrzej Borzym
%%abc-edited-by Krzysztof Stępień
%%abcx-initial-encoding-date 2021-07-26
%%humdrum-veritas 1672644266
%%humdrum-veritas-data 594674997
%%linebreak <none>
%%barnumbers 0
L: 1/8
M: 3/4
N: Derived from pl-kozmzk--mzk-m-159--042_walczynski-franciszek--praeludia-organi-op-5-allegro-moderato.krn
Q: "42. Allegro moderato."
%%staves {1 2}
V: 1 clef=treble
V: 2 clef=bass
K: F
[V:1] z6 & z6 | 
[V:2] z6 & z A,B,2^C,2 | 
[V:1] z6 & z6 | 
[V:2] z6 & D,2>F,2E,D, | 
[V:1] z6 & z6 | 
[V:2] z6 & ^C,E,2<!accent!A,2G, | 
[V:1] z6 & z6 | 
[V:2] z6 & F,G,E,F,D,2 | 
[V:1] z6 & z6 | 
[V:2] z D_E2F,2 & ^F,2>_E,2D,C, | 
[V:1] z6 & z6 | 
[V:2] G,2>B,2A,G, & B,,A,,B,,G,,A,,B,, | 
[V:1] z6 & z6 | 
[V:2] ^F,A,2<!accent!D2C & D,_E,D,C,B,,A,, | 
[V:1] z6 & z6 | 
[V:2] B,CA,B,G,2 & G,,2A,,2B,,2 | 
[V:1] z6 & z AB2^C2 | 
[V:2] A,2G,4 & ^C,4=E,2 | 
[V:1] z6 & D2>F2ED | 
[V:2] A,6 & F,E,F,D,E,F, | 
[V:1] z6 & ^CE2<!accent!A2G | 
[V:2] A,6- & G,2^C,4 | 
[V:1] z6 & FGEFD2 | 
[V:2] A,2G,A,F,2 & D,6 | 
[V:1] z d_e2F2 & ^F4D2 | 
[V:2] A,2C2DC & D,6 | 
[V:1] G2>B2AG & D2>G2^FG | 
[V:2] B,A,B,DCB, & G,6 | 
[V:1] ^FA2<!accent!d2c & ^FA- AFGA | 
[V:2] C4-CD- & A,G, ^F,D,E,F, | 
[V:1] BcABG2 & G6 | 
[V:2] D2CDB,2 & G,6 | 
[V:1] z ab2^c2 & E2GB AG | 
[V:2] ^C4E2 & A,6 | 
[V:1] d2>f2ed & GEFAGF | 
[V:2] D6 & D,6 | 
[V:1] fe2d2^c & B2A2G2- | 
[V:2] G2F2E2 & G,2A,4 | 
[V:1] d6- & GFEFG^G | 
[V:2] D6 & B,6 | 
[V:1] dc c!accent!B2A & A2G2^F2 | 
[V:2] D4C2 & ^F,2G,2D,2 | 
[V:1] B6 & G6 | 
[V:2] B,D,^C,D,E,^F, & G,,6 | 
[V:1] z AB2^C2 & z2z2A,2 | 
[V:2] G,A,B,2A,G,- & z2z E,,A,,2 | 
[V:1] !fermata!D6 & A,6 |]  
[V:2] G,G,^F,E,!fermata!F,2 & !fermata!D,6 |]  


